source/img/press/icon/subscribe.svg

<svg width="22" height="17" viewBox="0 0 22 17" fill="none" xmlns="http://www.w3.org/2000/svg">
<path d="M17.899 0H3.15865C2.32093 0 1.51751 0.332786 0.925148 0.925148C0.332786 1.51751 0 2.32093 0 3.15865V13.6875C0 14.5252 0.332786 15.3286 0.925148 15.921C1.51751 16.5134 2.32093 16.8462 3.15865 16.8462H17.899C18.7368 16.8462 19.5402 16.5134 20.1325 15.921C20.7249 15.3286 21.0577 14.5252 21.0577 13.6875V3.15865C21.0577 2.32093 20.7249 1.51751 20.1325 0.925148C19.5402 0.332786 18.7368 0 17.899 0ZM17.1936 2.10577L10.5288 7.10697L3.86409 2.10577H17.1936ZM17.899 14.7404H3.15865C2.87941 14.7404 2.61161 14.6295 2.41415 14.432C2.2167 14.2345 2.10577 13.9667 2.10577 13.6875V3.42188L9.89712 9.26538C10.0794 9.40207 10.301 9.47596 10.5288 9.47596C10.7567 9.47596 10.9783 9.40207 11.1606 9.26538L18.9519 3.42188V13.6875C18.9519 13.9667 18.841 14.2345 18.6435 14.432C18.4461 14.6295 18.1783 14.7404 17.899 14.7404Z" fill="black"/>
</svg>

<svg width="22" height="17" fill="none" xmlns="http://www.w3.org/2000/svg"><path d="M17.899 0H3.159A3.159 3.159 0 000 3.159v10.529a3.159 3.159 0 003.159 3.158h14.74a3.158 3.158 0 003.159-3.159V3.16A3.159 3.159 0 0017.899 0zm-.705 2.106l-6.665 5.001-6.665-5.001h13.33zm.705 12.634H3.159a1.053 1.053 0 01-1.053-1.053V3.422l7.791 5.843a1.053 1.053 0 001.264 0l7.79-5.843v10.265A1.053 1.053 0 0117.9 14.74z" fill="#000"/></svg>
